_includes/icons/color-thingiverse.svg

<svg height="50" viewBox="0 0 50 50" width="50" xmlns="http://www.w3.org/2000/svg"><path d="m25 2c-12.690705 0-23 10.309295-23 23s10.309295 23 23 23 23-10.309295 23-23-10.309295-23-23-23zm0 2c11.609824 0 21 9.390176 21 21s-9.390176 21-21 21-21-9.390176-21-21 9.390176-21 21-21zm-9 11v6h6v17h6v-17h6v-6z"/></svg>

<svg fill="#000000" xmlns="http://www.w3.org/2000/svg" viewBox="0 0 50 50" width="50px" height="50px"><path d="M 25 2 C 12.309295 2 2 12.309295 2 25 C 2 37.690705 12.309295 48 25 48 C 37.690705 48 48 37.690705 48 25 C 48 12.309295 37.690705 2 25 2 z M 25 4 C 36.609824 4 46 13.390176 46 25 C 46 36.609824 36.609824 46 25 46 C 13.390176 46 4 36.609824 4 25 C 4 13.390176 13.390176 4 25 4 z M 16 15 L 16 21 L 22 21 L 22 38 L 28 38 L 28 21 L 34 21 L 34 15 L 16 15 z"/></svg>
